svg/fluentui-system-icons/ic_fluent_weather_partly_cloudy_day_48_regular.svg

<svg width="48" height="48" viewBox="0 0 48 48" fill="none" xmlns="http://www.w3.org/2000/svg">
<path d="M25.9947 15.998C32.3317 15.998 35.9266 20.1925 36.4495 25.2582L36.6094 25.2582C40.6876 25.2582 43.9936 28.5557 43.9936 32.6233C43.9936 36.6909 40.6876 39.9883 36.6094 39.9883H15.3799C11.3018 39.9883 7.99578 36.6909 7.99578 32.6233C7.99578 28.5557 11.3018 25.2582 15.38 25.2582L15.5399 25.2582C16.0657 20.1593 19.6576 15.998 25.9947 15.998ZM25.9947 18.4931C21.7336 18.4931 18.0196 21.9411 18.0196 26.7037C18.0196 27.4583 17.3635 28.0505 16.6122 28.0505L15.1916 28.0504C12.5975 28.0504 10.4946 30.1642 10.4946 32.7718C10.4946 35.3793 12.5975 37.4931 15.1916 37.4931H36.7977C39.3918 37.4931 41.4947 35.3793 41.4947 32.7718C41.4947 30.1642 39.3918 28.0504 36.7978 28.0504L35.3771 28.0505C34.6258 28.0505 33.9697 27.4583 33.9697 26.7037C33.9697 21.88 30.2557 18.4931 25.9947 18.4931ZM8.70422 24.2917C8.95062 24.8866 8.7012 25.5631 8.14624 25.8619L8.03123 25.9165L5.71975 26.8782C5.08524 27.1411 4.35781 26.8397 4.09498 26.2052C3.84859 25.6104 4.09801 24.9339 4.65297 24.6351L4.76798 24.5805L7.07946 23.6187C7.71397 23.3559 8.4414 23.6572 8.70422 24.2917ZM21.7041 14.6504L21.6431 14.67C20.7184 14.9719 19.859 15.372 19.0722 15.8601C17.764 15.3066 16.2427 15.2577 14.8262 15.8444C12.0198 17.0068 10.6872 20.2242 11.8496 23.0305C11.9631 23.3045 12.0962 23.5645 12.2466 23.8095C11.4878 24.0806 10.7743 24.4479 10.1204 24.8964C9.94374 24.5936 9.78573 24.2753 9.64788 23.9425C7.98179 19.9202 9.89188 15.3088 13.9142 13.6427C16.5987 12.5308 19.5455 13.0117 21.7041 14.6504ZM5.57602 14.8303L5.703 14.876L8.02182 15.8649C8.65161 16.131 8.95369 16.8603 8.69653 17.4938C8.45652 18.0851 7.81417 18.3839 7.21755 18.2048L7.09056 18.159L4.77175 17.1702C4.14195 16.904 3.83987 16.1747 4.09703 15.5412C4.33705 14.95 4.97939 14.6511 5.57602 14.8303ZM12.9444 8.65661L12.9993 8.77221L13.9597 11.0781C14.2239 11.7159 13.921 12.4471 13.2832 12.7113C12.6853 12.959 12.0052 12.7083 11.7049 12.1504L11.65 12.0348L10.6896 9.72892C10.4254 9.09111 10.7282 8.3599 11.366 8.09572C11.964 7.84804 12.644 8.09876 12.9444 8.65661ZM21.9927 8.09651C22.5944 8.34575 22.9013 9.00623 22.7224 9.61735L22.6765 9.74738L21.6852 12.0231C21.4181 12.6678 20.679 12.9739 20.0343 12.7069C19.4326 12.4576 19.1258 11.7972 19.3047 11.186L19.3505 11.056L20.3418 8.78032C20.6089 8.13562 21.348 7.82946 21.9927 8.09651Z" fill="#212121"/>
</svg>

<svg xmlns="http://www.w3.org/2000/svg" width="48" height="48"><path d="M25.995 15.998c6.337 0 9.932 4.194 10.454 9.26h.16c4.079 0 7.385 3.298 7.385 7.365 0 4.068-3.306 7.365-7.385 7.365H15.38c-4.077 0-7.383-3.297-7.383-7.365 0-4.067 3.306-7.365 7.384-7.365h.16c.526-5.099 4.118-9.26 10.455-9.26Zm0 2.495c-4.261 0-7.975 3.448-7.975 8.21 0 .755-.657 1.348-1.408 1.348h-1.42c-2.595 0-4.697 2.113-4.697 4.72 0 2.608 2.103 4.722 4.697 4.722h21.606c2.594 0 4.697-2.114 4.697-4.721 0-2.608-2.103-4.722-4.697-4.722h-1.42c-.752 0-1.408-.592-1.408-1.346 0-4.824-3.714-8.21-7.975-8.21Zm-17.29 5.799a1.244 1.244 0 0 1-.559 1.57l-.115.055-2.311.961a1.243 1.243 0 0 1-1.067-2.243l.115-.055 2.311-.961a1.244 1.244 0 0 1 1.625.673Zm13-9.642-.062.02a11.81 11.81 0 0 0-2.57 1.19 5.5 5.5 0 0 0-6.826 7.95 9.278 9.278 0 0 0-2.127 1.086A7.883 7.883 0 0 1 21.704 14.65Zm-16.129.18.127.046 2.319.989c.63.266.932.995.675 1.629-.24.591-.883.89-1.48.71l-.126-.045-2.32-.989a1.26 1.26 0 0 1-.674-1.629c.24-.591.882-.89 1.479-.71Zm7.368-6.173.055.115.96 2.306a1.25 1.25 0 0 1-2.254 1.072l-.055-.115-.96-2.306a1.25 1.25 0 0 1 2.254-1.072Zm9.049-.56c.601.249.908.91.73 1.52l-.046.13-.992 2.276a1.264 1.264 0 0 1-2.38-.837l.046-.13.99-2.276a1.264 1.264 0 0 1 1.652-.683Z"/></svg>
